X: 1
T: KILKENNY ROVER'S - JIG
B: Ryan's Mammoth Collection of Fiddle Tunes
R: jig
M: 6/8
L: 1/8
Z: Contributed 20010527154944 by John Chambers jc:trillian.mit.edu
K: C
uG \
| GEE EcB | ccd cGG | GEE Ed^c | d^ce dGG \
| GEE E(cB) | dcd eef | gaf efd | dcc c2 :|
|: (ue/f/) \
| ga^f g(g=f) | efd cde | fge f(fe) | de^c def \
| ga^f g(g=f) | efd cde | fge dcd | ecc c2 :|
